X:1
T:Title
%%score { ( 1 3 ) | ( 2 4 ) }
L:1/8
M:2/4
K:Eb
V:1 treble nm="Grand Piano"
V:3 treble 
V:2 bass 
V:4 bass 
V:1
 z2[Q:1/4=88] E2 | BB [FB][FB] | [Ee]2 [B,EG]2 | [CEF][CEF] [B,DA][B,FA] | [FA]2 G[B,DF] | %5
 [B,EG][EB] [FB][FB] | [Ee]2 =A2 | [DB][Gc] [Fd][Ec] | [DB]2 d2 | eB AG | c2 Bd | eB AG | %12
 [EG]2 [DF][DF] | G>A BB |[M:9/16] c>de-e/[Ec] |[M:2/4] B>A G[A,DF] |[M:3/8] [G,E]3 |] %17
V:2
 z2 [E,G,]2 | [E,G,E][E,G,E] [D,F,][D,F,] | [C,G,]2 B,,2 | A,,A,, B,,B,, | z2 EB,, | %5
 E,[E,G,] [D,F,][D,F,] | [C,G,]2 [F,E]2 | [B,,F,][E,G,] [F,B,][F,=A,] | %8
 [B,,B,]2[K:treble] [A,B,F]2 | [G,B,E]2[K:bass] C-[E,CE] | [E,E]2- [E,G,E][K:treble][A,B,F] | %11
 [G,B,E]2[K:bass] B,-[E,B,E] | [B,,B,]3 [B,,B,] | B,2 z2 |[M:9/16] A,3/2 z3/2 z3/2 | %15
[M:2/4] G,2 z2 |[M:3/8] E,3 |] %17
V:3
 x4 | x4 | x4 | x4 | B,4 | x4 | x4 | x4 | x4 | x4 | x4 | x4 | x4 | x4 |[M:9/16] E3- E/ z/ z/ | %15
[M:2/4] E4 |[M:3/8] x3 |] %17
V:4
 x4 | x4 | x4 | x4 | E,4 | x4 | x4 | x4 | x2[K:treble] x2 | z2[K:bass] .[F,D]2 | A,2 z2[K:treble] | %11
 z2[K:bass] .[F,D]2 | x4 | [E,E]->[E,-F,E-] [E,G,E][E,G,E] | %14
[M:9/16] A,,->[A,,-B,][A,,C]-[A,,C]/[A,,A,] |[M:2/4] B,,->[B,,-C] [B,,B,]B,, |[M:3/8] x3 |] %17

